assets/symbols/mulberry/frozen_food_box.svg

<svg height="850.394" viewBox="0 0 850.394 850.394" width="850.394" xmlns="http://www.w3.org/2000/svg"><path d="m649.76 214.13-.14-.23-.14.21-.011.02zm88.93-77.22 21.76 446.03c0 3.51-1.24 6.729-3.311 9.229a14.443 14.443 0 0 1 -11.189 5.28h-642.06c-4.76 0-8.98-2.29-11.63-5.83a14.408 14.408 0 0 1 -2.88-8.68l21.77-446.03c0-8.01 6.5-14.51 14.51-14.51h598.52c8.01.001 14.51 6.501 14.51 14.511z" fill="#6ebe44"/><path d="m757.32 592.32-12.55 121.25c0 6.92-5.609 12.54-12.539 12.54h-615.671c-6.93 0-12.54-5.62-12.54-12.54l-12.55-121.25.79-.7c2.65 3.54 6.87 5.83 11.63 5.83h642.06c4.51 0 8.53-2.05 11.189-5.28z" fill="#6ebe44"/><path d="m649.76 214.13h-.29l.01-.02.14-.21z" fill="#fff"/><g fill="none"><g stroke="#231f20"><path d="m92.26 591.62a14.408 14.408 0 0 1 -2.88-8.68l21.77-446.03c0-8.01 6.5-14.51 14.51-14.51h598.52c8.011 0 14.511 6.5 14.511 14.51l21.76 446.03c0 3.51-1.24 6.729-3.311 9.229a14.443 14.443 0 0 1 -11.189 5.28h-642.061c-4.76.001-8.98-2.289-11.63-5.829z" stroke-width="21"/><path d="m686.04 155.01-36.42 58.89-.14.21m51.06-42.45-27.95 5.94m-7.93-28.13 7.17 27.66m-58.84 95.97 36.41-58.85.07-.12.01-.02m-50.99 42.34 27.95-5.94m7.92 28.13-7.16-27.66m-14.33-96.48 36.56 59.1m-51.06-42.45 27.95 5.94m7.93-28.13-7.17 27.66" stroke-width="14"/><path d="m685.92 272.59-36.16-58.46-.14-.23-.11-.17-.08-.13m50.99 42.34-27.95-5.94m-7.93 28.13 7.17-27.66m47.46-36.34h-69.49m62.95 21.09-19.76-20.64m19.76-21.54-19.76 20.64m-112.56.45h69.37m-62.84-21.1 19.76 20.65m-19.76 21.54 19.76-20.65" stroke-width="14"/><path d="m757.32 592.32-12.55 121.25c0 6.92-5.609 12.54-12.539 12.54h-615.671c-6.93 0-12.54-5.62-12.54-12.54l-12.55-121.25" stroke-width="21"/></g><path d="m0 0h850.394v850.394h-850.394z"/></g></svg>

<svg xmlns="http://www.w3.org/2000/svg" width="850.394" height="850.394" viewBox="0 0 850.394 850.394" overflow="visible"><path d="M649.76 214.13l-.14-.23-.14.21-.011.02H649.76zm88.93-77.22l21.76 446.03c0 3.51-1.24 6.729-3.311 9.229a14.443 14.443 0 0 1-11.189 5.28H103.89c-4.76 0-8.98-2.29-11.63-5.83a14.408 14.408 0 0 1-2.88-8.68l21.77-446.03c0-8.01 6.5-14.51 14.51-14.51h598.52c8.01.001 14.51 6.501 14.51 14.511z" fill="#6ebe44"/><path d="M757.32 592.32l-12.55 121.25c0 6.92-5.609 12.54-12.539 12.54H116.56c-6.93 0-12.54-5.62-12.54-12.54L91.47 592.32l.79-.7c2.65 3.54 6.87 5.83 11.63 5.83h642.06c4.51 0 8.53-2.05 11.189-5.28l.181.15z" fill="#6ebe44"/><path fill="#fff" d="M649.76 214.13h-.29l.01-.02.14-.21z"/><g fill="none" stroke="#231f20"><path d="M92.26 591.62a14.408 14.408 0 0 1-2.88-8.68l21.77-446.03c0-8.01 6.5-14.51 14.51-14.51h598.52c8.011 0 14.511 6.5 14.511 14.51l21.76 446.03c0 3.51-1.24 6.729-3.311 9.229a14.443 14.443 0 0 1-11.189 5.28H103.89c-4.76.001-8.98-2.289-11.63-5.829z" stroke-width="21"/><path stroke-width="14" d="M686.04 155.01l-36.42 58.89-.14.21M700.54 171.66l-27.95 5.94M664.66 149.47l7.17 27.66M612.99 273.1l36.41-58.85.07-.12.01-.02M598.49 256.45l27.95-5.94M634.36 278.64l-7.16-27.66M612.87 154.5l36.56 59.1M598.37 171.15l27.95 5.94M634.25 148.96l-7.17 27.66"/><path stroke-width="14" d="M685.92 272.59l-36.16-58.46-.14-.23-.11-.17-.08-.13M700.42 255.94L672.47 250M664.54 278.13l7.17-27.66M719.17 214.13h-69.49M712.63 235.22l-19.76-20.64M712.63 193.04l-19.76 20.64M580.31 214.13H649.68M586.84 193.03l19.76 20.65M586.84 235.22l19.76-20.65"/><path d="M757.32 592.32l-12.55 121.25c0 6.92-5.609 12.54-12.539 12.54H116.56c-6.93 0-12.54-5.62-12.54-12.54L91.47 592.32" stroke-width="21"/></g><path fill="none" d="M0 0h850.394v850.394H0z"/></svg>
